front/src/img/Sound.svg

<svg width="25" height="23" viewBox="0 0 25 23" fill="none" xmlns="http://www.w3.org/2000/svg">
<path d="M0.8125 7.60419V15.3959H6.00694L12.5 21.8889V1.11114L6.00694 7.60419H0.8125ZM18.3438 11.5C18.3438 9.20148 17.0192 7.22759 15.0972 6.26662V16.7204C17.0192 15.7725 18.3438 13.7986 18.3438 11.5ZM15.0972 0.111206V2.78634C18.8502 3.90315 21.5903 7.38343 21.5903 11.5C21.5903 15.6166 18.8502 19.0969 15.0972 20.2137V22.8888C20.3047 21.7071 24.1875 17.0581 24.1875 11.5C24.1875 5.94197 20.3047 1.29294 15.0972 0.111206Z" fill="#244D35"/>
</svg>

<svg xmlns="http://www.w3.org/2000/svg" width="25" height="23" fill="none"><path fill="#244D35" d="M.813 7.604v7.792h5.194l6.493 6.493V1.11L6.007 7.604H.813Zm17.53 3.896a5.844 5.844 0 0 0-3.246-5.233V16.72a5.81 5.81 0 0 0 3.247-5.22ZM15.098.111v2.675C18.85 3.903 21.59 7.383 21.59 11.5s-2.74 7.597-6.493 8.714v2.675c5.208-1.182 9.09-5.83 9.09-11.389 0-5.558-3.882-10.207-9.09-11.389Z"/></svg>
